X:5965
T:Gan Ainm
R:reel
S:Sharon Shannon
H:
N:Composed/Played by Phil Cunningham?
D:Galway Arts Festival Concert
Z:Adrian Scahill
M:4/4
L:1/8
K:D
D2 (3DDD ADFD|(3DDD (3AAA (3ddd fd|edBd AdFA|BdAF GECE|\
D2 (3DDD ADFD|(3DDD (3AAA (3ddd fd|edBd AdFA|1 BdAF DdAF:|2 BdAF D3E||\
F3E FABA|dBBA BdAD|Bbba B3b|afde fefa|\
bd (3ddd edBd|AdFD EDB,D|A,D (3DDD DFBF|AFEF D3:||


